!!!COM: Robert Schumann
!!!CNT: Deutsch
!!!TXO: Deutsch
!!!OTL: Freisinn
!!!LYR: Goethe
!!!OPR: Myrten
!!!OPS: Op.25
!!!ONM: No. 2
!!!ENC: Ben Fuhrman
!!!YOR: Schumann Lieder - Max Friedlaender, ed.,
!!!YOR: New York: C. F. Peters, Vol. 1
!!!ODT: 1840/
!!NB: Vocal melody and text only encoded.
!!NB: First instance of melodic material only encoded.
**kern	**silbe
*clefG2	*
*k[b-e-a-]	*
*M4/4	*
!!created: 5/8/06 13:50
!!proofed and posted: 5/8/06 13:55
!!edit time: 50 min. plus 2 hours of reading the humdrum documentation.
=2	=2
2r	.
4r	.
{8.g	{Lasst
16f	mich
=3	=3
(4f	nur
8.a-)	|
16g	auf
8g	mei-
8g	-nem
8.cc	Sat-
16b-	-tel
=4	=4
(4.b-	gel-
8a-)	|
4g}	-ten!}
4r	.
!! rest until measure 6
=6	=6
2r	.
4r	.
{8.g	{bleibt
16f	in
=7	=7
(4f	en-
8.an)	|
16b-	-ren
8b-	Hu2t-
8b-	-ten,
8b-	en-
8cc	-ren
=8	=8
(4.dd	Zel-
8cc)	|
4b-	-ten!
8.b-	und
16b-	ich
=9	=9
4.cc	rei-
8g	-te
8.a-	froh
16a-	in
8.g	al-
16f	-le
=10	=10
2b-	Fer-
4g}	-ne,}
4r	.
=11	=11
2r	.
4r	.
{8.g	{u2-
16g	-ber
=12	=12
4.a-	mei-
8b-	-ner
8cc	Mu2t-
8cc	-ze
8a-	nur
8f	die
=13	=13
2b-	Ster-
4e-}	-ne.}
4r	.
=14	=14
4r	.
{4g	{Er
8g	hat
8g	euch
8g	die
8cc	Ge-
=15	=15
4cc	-stir-
8bn	-ne
8an	ges-
4bn	-etzt
4g	als
=16	=16
4cc	Lei-
8dd	-ter
8dd	zu
4.ee-	Land
8dd	und
=17	=17
2cc}	See,}
2r	.
=18	=18
4r	.
8r	.
{8g	{da-
8g	-mit
8g	ihr
8g	euch
8cc	da-
=19	=19
(4cc	-ran
8bn)	|
8an	er-
4bn}	-go2tzt,}
4r	.
=20	=20
{4cc	{stets
8dd	blick-
8dd	-end
4.ee-	in
8dd	die
=21	=21
4cc}	Ho2h'.}
4r	.
2r	.
!! rest until measure 23
=23	=23
2r	.
4r	.
{8.g	{Lasst
16f	mich
=24	=24
(4f	nur
8.a-)	|
16g	auf
8g	mei-
8g	-nem
8.cc	Sat-
16b-	-tel
=25	=25
(4.b-	gel-
8a-)	|
4g}	-ten!}
4r	.
!! rest until measure 27
=27	=27
2r	.
4r	.
{8.g	{bleibt
16f	in
=28	=28
(4f	eu-
8.an)	|
16b-	-ren
8b-	Hu2t-
8b-	-ten,
8b-	eu-
8cc	-ren
=29	=29
(4.dd	Zel-
8cc)	|
4b-	ten!
8.b-	und
16b-	ich
=30	=30
4.cc	rei-
8g	-te
8.a-	froh
16a-	in
8.g	al-
16f	-le
=31	=31
2b-	Fer-
4g}	-ne,}
r4	.
=32	=32
2r	.
4r	.
{8.g	{u2-
16g	-ber
=33	=33
4.a-	nei-
8b-	-ner
8cc	Mu2-
8cc	-tze
8a-	nur
8f	die
=34	=34
2b-	Ster-
4e-}	-ne}
!! this next rest is not in the score but removes the proof error
4r	.
==	==
*-	*-
